X:5
T:Gavotten Ar Menez
R:gavotte
D:Kornog: Ar Seizh Avel
O:Bretagne
Z:id:hn-gavotte-5
M:4/4
L:1/8
K:Am
eg dd de cd |1 eg dd c2 cd :|2 eg dd c2 c2 ||
Ac cd de e2 | dc Bc B2 A2 | (3cBA cd de e2 | dc Bc B2 Ae ||

